X: 42228
T: Wayne's
R: reel
M: 4/4
K: Adorian
|:c2 cB A2 AB|cBcd cB A2|G2 G2 G2 A2|BABc dc B2|
c2 cB A2 AB|cBcd cB A2|GFGA BAGE|1 AGAB A2 AB:|2 AGAB A2 e2||
|:e2 a2 a2 e2|aeab c'b a2|e2 g2 g2 d2|gdga baga|
e2 a2 a2 e2|aeab c'b a2|edef gedB|1 AGAB A2 ee:|2 AGAB A2 AB||

